X: 5
T: Put Me In The Big Chest
R: reel
M: 4/4
L: 1/8
K: Amaj
EFAB c2 cf | ecBA F/F/F F2 | EFAB c cf | ecBc A/A/A A :|Efec eAAc | efec BABc | efec efaf | ecBc A/A/A A :|


Tune 3105	Setting 16219

